X:254
T:Or sus, or sus (Chanson 16)
S:from bay16.MID
C:Manuscript de Bayeux (fin XVe)
R:Chanson
M:C
L:1/8
Q:1/4=120
K:C 
V:1
c4 B3/2A/2 AA | G2zg gf ef | g2 gf ec dd | c2zc c2 c2 | 
d2 c3B A2 | G4 c4 | BA/2G/2 A2 G2zg | g3f ed/2c/2 d2 | 
c4 c2 ff | g3g2<f2f | ed/2c/2 dd c4 | g2 fe d2 dd | 
cd cB A2zA | c4 cB/2A/2 A2 | G2zg2<g2f | ed/2c/2 dd c4 | 
c4 B3/2A/2 AA | G2zg gf ef | g2 gf ec dd | c4 |]





